X:1
T:Sing ye to our Lord
T:William Byrd (c.1540-1623)
T:Sing ye to our Lord
T:© Choral Public Domain Library 2010
T:© Choral Public Domain Library 2010
T:© Choral Public Domain Library 2010
T:© Choral Public Domain Library 2010
C:William Byrd (c.1540-1623)
Z:© Choral Public Domain Library 2010
%%score [ 1 2 3 ]
L:1/8
M:4/4
K:F
V:1 treble nm="Soprano" snm="S."
V:2 treble nm="Soprano" snm="S."
V:3 treble-8 transpose=-12 nm="Tenor" snm="T."
V:1
 [Da]2 |[M:4/2] A6 GA B2 G2 A4 | c2 f4 e2 d4 ^c4 | z2 A2 c4 F2 G2 E2 e2- | e2 c2 d2 e2 f4 e4 | %5
w: |Sing ye _ to our Lord|a new _ _ song,|a new song, _ a new|_ _ _ _ _ song,|
 z2 c2 =B4 z2 B2 c4 | A4 G2 F2 f4 e2 d2- | d2 c2 =B4 z2 c4 _B2 | A3 G F4 z2 d2 g4 | %9
w: his praise, his praise|in the Church, in the Church|_ of Saints, in the|Church of Saints, his praise|
 f4 e2 d3 ^ced c2 f2 | e4 z2 d4 ^c=B c4 | d16 | z2 E4 A4 ^G2 A2 f2 | e2 A2 z2 B2 A2 D2 F2 B2- | %14
w: in the Church of _ _ Saints, of|Saints, of _ _ _|Saints.|Let Is- ra- el be|joy- ful, be joy- ful in him|
 B2 A2 G4 F2 B2 A4 | G4 z2 A2 A2 d2 c3 B | A2 B4 c2 d4 z2 A2 | A2 G2 A2 FG D2 E2 F2 c2 | %18
w: _ that made him, that made|him, and let the daugh- ters|of Si- * on, and|let the daugh- ters of Si- * on, and|
 c2 f2 e3 d c2 d4 c"^w > w ."B |[M:3/2] A8 d4 | ^c6 d2 e4 | f4 e8 | d12 | z4 z4 A4 | B6 c2 d4 | %25
w: let the daugh- ters of Si- * *|on re-|joice _ _|in their|King,|re-|joice _ _|
 g8"^w . > w" ^f4 |[M:4/2] g8 z4 z2 d2 | d2 g2 f3 e c2 d4 cB | A4 e2 f4 ed ^c2 e2- | %29
w: in their|King, and|let the daugh- ters of Si- * *|on, of Si- * * on, Si-|
 edc=B cA d4 ^cB"^w > w ." c4 |[M:3/2] d12- | d12 | z12 | z4 z4 e4 | f2 e2 f2 g2 a4 | %35
w: |on,|_||re-|joice _ _ _ _|
 d2 c2 d2 e2 f4- | f2 e2 d2 ^c2 d4 | ^c8 e4- | e4 d8 | ^c8 z4 | z4 z4 d4 | f8 F4 | %42
w: in _ _ _ _|_ their _ _ _|King, in|_ their|King,|re-|joice in|
 A2 G2 A2 B2 c2 A2 | f4 e8 | d8"^w . > w" ^c4 |[M:4/2] d8 z4 A4 | d6 c2 B2 AG A4 | D4 G6 D2 G4- | %48
w: their _ _ _ _ _|_ King,|in their|King, re-|joice in their _ _ King,|re- joice in their|
 G4 ^F2 E2 !fermata!F8 |] %49
w: _ _ _ King.|
V:2
 [Da]2 |[M:4/2] z16 | A6 GA B2 G2 A4 | c2 f4 e2 d4 ^c4 | z2 A4 c4 =B2 c4 | z2 e2 d4 z2 g2 e4 | %6
w: ||Sing ye _ to our Lord|a new _ _ song,|a new _ song,|his praise, his praise|
 f4 e2 d4 c2 =B4- | B2 e2 d2 G2 A4 z2 f2- | f2 e2 d2 A3 GBA GF D2 | A2 c2 g4 f4 e2 d2- | %10
w: in the Church of Saints,|_ the Church of Saints, in|_ the Church of _ _ _ _ _ _|Saints, his praise in the Church|
 d^ced c2 f2 e8 | z2 A4 B4 A2 B2 d2 | ^c6 d2 e4 c2 d2- | d2 ^c2 d2 g4 fe defd | e2 f4 e2 f8 | %15
w: _ of _ _ Saints, of Saints.|Let Is- ra- el be|joy- ful in him, in|_ _ him, that made _ _ _ _ _|_ _ _ him,|
 z4 z2 F2 F2 G2 A3 G | F2 G4 FE D2 d2 d2 f2 | e3 d c2 d4 cB A2 F2 | A4 G4 z2 D2 G4 | %19
w: and let the daugh- ters|of Si- * * on, and let the|daugh- ters of Si- * * on, of|Si- on, of Si-|
[M:3/2] ^F8 D4 | A6 =B2 ^c4 | d8 ^c4 | d4 A8 | B4 A8 | z4 G4 B4- | B4 A4 A4 | %26
w: on re-|joice _ _|in their|King, in|their King,|re- joice|_ in their|
[M:4/2] G2 B2 B2 d2 c3 B A2 B2- | B2 c2 d4 A2 f4 ed | c4 z2 F2 F2 G2 A3 G | E2 A4 GF E4 z2 E2 | %30
w: King, and let the daugh- ters of Si-|* * on, of Si- * *|on, and let the daugh- ters|of Si- * * on, re-|
[M:3/2] F2 E2 F2 G2 A4 | B2 A2 B2 c2 d4 | ^c4 e8 | d8 ^c4 | d8 d4 | f2 e2 f2 g2 a4 | %36
w: joice _ _ _ _|in _ _ _ their|King, in|_ their|King, re-|joice _ _ _ _|
 d2 c2 d2 e2 f4 | e12 | z4 z4 D4 | A2 G2 A2 B2 c4 | G2 F2 G2 A2 B4 | A12 | z4 z4 A4 | c12 | %44
w: in _ _ _ their|King,|re-|joice _ _ _ _|in _ _ _ their|King,|re-|joice|
 F2 G2 A2 G2 E4 |[M:4/2] ^F4 G2 B4 AG F2 A2 | G2 ^F2 G4 D4 d4- | d2 c2 B2 AG B4 B4- | %48
w: in _ _ _ their|King, re- joice _ _ _ in|their _ King, re- joice|_ in their _ _ King, in|
 B4 A2 G2 !fermata!A8 |] %49
w: _ their _ King.|
V:3
 [Db]2 |[M:4/2] z16 | z16 | A6 GA B2 G2 A4 | c2 f4 e2 d4 c4 | z2 c2 g4 z2 G2 c4 | F4 G2 B4 A2 G4 | %7
w: |||Sing ye _ to our Lord|a new _ _ song,|his praise, his praise|in the Church of Saints,|
 z2 c2 g4 f4 e2 d2- | d2 ^c2 d4 B6 B2 | A4 G4 A6 D2 | A16 | z2 d4 g4 ^f2 g2 b2 | %12
w: his praise in the Church|_ of Saints, in the|Church of Saints, of|Saints.|Let Is- ra- el be|
 a2 A2 z2 f2 e2 E2 A4- | A4 G2 G2 d4 B4 | c8 z2 d2 d2 f2 | e3 d ^c2 d4 =cB A4 | z8 z2 B2 B2 d2 | %17
w: joy- ful, be joy- ful in|_ him, that made _|him, and let the|daugh- ters of Si- * * on,|and let the|
 c3 B A2 B4 AG F4 | z2 F2 c4 A2 B2 G4 |[M:3/2] d12 | z12 | z4 z4 A4 | d6 e2 ^f4 | g8 ^f4 | %24
w: daugh- ters of Si- * * on,|the daugh- ters of Si-|on,||re-|joice _ _|in their|
 g4 G6 A2 | B2 c2 d8 |[M:4/2] z2 g2 g2 b2 a3 g ^f2 g2- | g2 fe d4 z2 d2 d2 e2 | f3 e c2 d4 cB A4 | %29
w: King, in their|_ _ King,|and let the daugh- ters of Si-|* * * on, and let the|daugh- ters of Si- * * on,|
 c2 A4 D2 A4 z2 A2 |[M:3/2] d2 c2 d2 e2 f4 | g2 f2 g2 a2 b4 | a8 g4 | f4 e8 | d12- | d12 | %36
w: of Si- * on re-|joice _ _ _ _|in _ _ _ their|_ King,|in their|King,|_|
 z4 z4 D4 | A2 G2 A2 B2 c4 | G2 F2 G2 A2 B4 | A4 A8 | B4 G8 | F8 d4 | f8 F4 | A2 G2 A2 B2 c2 A2 | %44
w: re-|joice _ _ _ _|in _ _ _ their|King, in|their _|_ King,|re- joice|_ _ _ _ _ _|
 B4 A8 |[M:4/2] D4 G4 d6 c2 | B2 A2 G8 ^F4 | G4 G8 G4 | !fermata!d16 |] %49
w: in their|King, re- joice _|_ _ in their|King, in their|King.|

